src/main/resources/icons/DatabaseIcons/icons/runDatabaseScript.svg

<svg width="16" height="16" viewBox="0 0 16 16" fill="none" xmlns="http://www.w3.org/2000/svg">
<path fill-rule="evenodd" clip-rule="evenodd" d="M9 7L16 11.5L9 16V7Z" fill="#59A869"/>
<path fill-rule="evenodd" clip-rule="evenodd" d="M8 6.40367C5.51979 6.40367 3.32716 5.94156 2 5.23423V6.51376C2 7.42579 4.68629 8.16514 8 8.16514V6.40367ZM9.90774 6.30962L12.0926 7.72136C13.2662 7.41993 14 6.99043 14 6.51376V5.23423C13.026 5.75337 11.5857 6.14041 9.90774 6.30962ZM8 9.26606C5.51979 9.26606 3.32716 8.80395 2 8.09662V9.4567C2 10.3242 4.68629 11.0275 8 11.0275V9.26606ZM14 8.95385L13.2171 8.44797C13.503 8.33934 13.7651 8.22182 14 8.09662V8.95385ZM8 12.1284V14C4.68629 14 2 13.2607 2 12.3486V10.959C3.32716 11.6663 5.51979 12.1284 8 12.1284ZM2 3.65138C2 4.56341 4.68629 5.30275 8 5.30275C11.3137 5.30275 14 4.56341 14 3.65138C14 2.73935 11.3137 2 8 2C4.68629 2 2 2.73935 2 3.65138Z" fill="#6E6E6E"/>
</svg>

<svg width="16" height="16" viewBox="0 0 16 16" fill="none" xmlns="http://www.w3.org/2000/svg"><rect id="frame" width="16" height="16" fill="none"/><path fill-rule="evenodd" clip-rule="evenodd" d="M9 7l7 4.5L9 16V7z" fill="#59A869"/><path fill-rule="evenodd" clip-rule="evenodd" d="M8 6.404c-2.48 0-4.673-.462-6-1.17v1.28c0 .912 2.686 1.651 6 1.651V6.404zm1.908-.094l2.185 1.411C13.266 7.42 14 6.991 14 6.514v-1.28c-.974.52-2.414.906-4.092 1.076zM8 9.266c-2.48 0-4.673-.462-6-1.17v1.36c0 .868 2.686 1.572 6 1.572V9.265zm6-.312l-.783-.506c.286-.109.548-.226.783-.351v.857zm-6 3.174V14c-3.314 0-6-.74-6-1.651v-1.39c1.327.707 3.52 1.17 6 1.17zM2 3.651c0 .912 2.686 1.652 6 1.652s6-.74 6-1.652C14 2.74 11.314 2 8 2s-6 .74-6 1.651z" fill="#6E6E6E"/></svg>
